!!!COM: Chaminade, Cécile
!!!CDT: 1857/08/08-1944/04/13
!!!OPR: Album des enfants
!!!OVM: 1
!!!OPS: 123
!!!ONM: 4
!!!OTL: Rondeau
!!!OMD: Allegro
**kern	**kern	**dynam
*part1	*part1	*part1
*staff2	*staff1	*
*I"Piano	*	*
*clefF4	*clefG2	*
*k[b-]	*k[b-]	*
*M6/8	*M6/8	*
=1	=1	=1
8r	8cc	mf
=	=	=
(4B-	([4.e [4.g	.
8c	.	.
8C)	4e] 4g]	.
8r	.	.
8r	8cc)	.
=	=	=
(4A	([4.d#X [4.f#X	.
8c	.	.
8C)	4d#] 4f#]	.
8r	.	.
8r	8cc)	.
=	=	=
(8B-L	(8eL 8g	.
8c	8a	.
8B-J	8gJ	.
8G)	8b-)	.
8r	8r	.
8A	8a	.
=	=	=
(4B-	([4.e [4.g	.
8c	.	.
8C)	4e] 4g]	.
8r	.	.
8r	8cc)	.
=	=	=
(8AL	(8fL 8cc	.
8c	8dd	.
8AJ	8ccJ	.
8C)	8ff)	.
8r	8r	.
8r	8cc	.
=	=	=
(4A-X^	([4.f [4.bn	.
8c	.	.
8C)	4f] 4b]	.
8r	.	.
8r	8dd)	.
=	=	=
(4G^	[4.e^ [4.b-	.
8c	.	.
8C)	4e] 4b-]	.
8r	.	.
8r	8cc	.
=	=	=
(4F#X^	[4.e-X [4.a	.
8c	.	.
8C)	4e-] 4a]	.
8r	.	.
8r	8cc	.
=	=	=
8G 8d	8b-	.
8r	8r	.
8A 8d	8f#X	.
8B- 8d	8g	.
8r	8r	.
8F#X 8d	8a	.
=	=	=
8G 8d	8b-	.
8r	8r	.
8A 8d	(8f#X	.
8B- 8d	8gL	<
8r	8b-	.
8r	8ddJ	.
=	=	=
*	*^	*
4.r	[4.a^)	4.ryy	[
!	!LO:TX:b:i:t=m.g.	!	!
4r	4.a]	4.c 4.e 4.g	.
8r	.	.	.
=	=	=	=
2.r	4.a	4.d 4.f	.
.	4.a-X	4.ryy	.
*	*v	*v	*
=	=	=
(4e	(4g	.
8G)	8cc)	.
(4d#X	(4f#X	.
8G)	8cc)	.
=	=	=
(4e	(4g	.
8G)	8cc)	.
(8fL	(8aL	.
8e	8cc	.
8dJ)	8ffJ)	.
=	=	=
(4.f	[4.g [4.bn [4.dd	.
4.G)	4.g] 4.b] 4.dd]	.
=	=	=
[4.c [4.e	[4.g [4.cc	.
8c] 8e]	8g] 8cc]	.
8r	8r	.
8c	8cc	f
=	=	=
4e	4ee	.
8c	8cc	.
4A	4a	.
8Bn	8bn	.
=	=	=
4c	4cc	.
(8A	(8a	.
8FL	8fL	.
8G	8g	.
8AJ)	8aJ)	.
=	=	=
4E	4e	.
8A	8a	.
4D#X	4f	.
8A	8a	.
=	=	=
!	!LO:TX:b:i:t=sempre	!
4E	4e	.
8c	8a	.
4F#X	4d#X	f
8c	8a	.
=	=	=
4.G	4e 4cc	.
.	8g	.
(4c	(4e	.
8d	8f	.
=	=	=
4e)	4g	.
8r	8e)	.
4.r	(8cL	.
.	8d	.
.	8eJ)	.
=	=	=
4.G^^	4.r	f
4.GG 4.F	4.Bn 4.d	.
=	=	=
[4.C [4.E	[4.c	.
4C] 4E]	4c]	.
8r	(8cc	.
=	=	=
4r	[4.c^^)	.
8E	.	.
4.G	4c]	.
.	(8cc	.
=	=	=
4r	[4.d^^)	.
8F	.	.
4.A-X	4d]	.
.	(8cc	.
=	=	=
4F#X	4d#X)	.
8A	(8cc	>
4G	4e)	.
8B-	(8cc	.
=	=	=
4A-X	4f)	.
8c	8cc	]
!	!LO:TX:a:B:t=poco rit.	!
4An	4f#X	.
8e#X	8cc	.
=	=	=
!	!LO:TX:a:B:t=a tempo	!
(4B-	([4.e [4.g	.
8c	.	.
8C)	4e] 4g]	.
8r	.	.
8r	8cc)	.
=	=	=
(4A	([4.d#X [4.f#X	.
8c	.	.
8C)	4d#] 4f#]	.
8r	.	.
8r	8cc)	.
=	=	=
(8B-L	(8eL 8g	.
8c	8a	.
8B-J	8gJ	.
8G)	8b-)	.
8r	8r	.
8A	8a	.
=	=	=
(4B-	([4.e [4.g	.
8c	.	.
8C)	4e] 4g]	.
8r	.	.
8r	8cc)	.
=	=	=
(8AL	(8fL 8cc	.
8c	8dd	.
8AJ	8ccJ	.
8C)	8ff)	.
8r	8r	.
8r	8cc	.
=	=	=
(4A-X^	([4.f [4.bn	.
8c	.	.
8C)	4f] 4b]	.
8r	.	.
8r	8dd)	.
=	=	=
(4G^	[4.e^ [4.b-	.
8c	.	.
8C)	4e] 4b-]	.
8r	.	.
8r	8cc	.
=	=	=
(4F#X^	[4.e-X [4.a	.
8c	.	.
8C)	4e-] 4a]	.
8r	.	.
8r	8cc	.
=	=	=
8G 8d	8b-	.
8r	8r	.
8A 8d	8f#X	.
8B- 8d	8g	.
8r	8r	.
8F#X 8d	8a	.
=	=	=
8G 8d	8b-	.
8r	8r	.
8A 8d	(8f#X	.
8B- 8d	8gL	.
8r	8b-	.
8r	8ddJ	.
=	=	=
*	*^	*
4.r	[4.ff^^)	4.r	.
*clefG2	*	*	*
4.d 4.f 4.g#X	4.ff_	4.bn	.
=	=	=	=
4.c 4.a	4.ff_	4.cc	.
4.Bn 4.g#X	4.ff]	4.dd	.
*	*v	*v	*
*clefF4	*	*
=	=	=
(4A	(4c	.
8C	8f	.
4B-	4d	.
8C)	8f)	.
=	=	=
(4A	(8cL	.
.	8f	.
8C	8aJ	.
8e)	8cc)	.
8r	8r	.
8d	8f 8b-	.
=	=	=
2.c	(4.f 4.a	.
.	4.ccc)	.
=	=	=
2.C 2.B-	[4.c [4.e [4.g	.
.	4c] 4e] 4g]	.
.	8f	.
=	=	=
2.FF 2.C	2.A 2.f	.
==	==	==
*-	*-	*-
!!!system-decoration: {(s1,s2)}
!!!ENC: Florian Moldaschl
!!!END: 2026/04/24
!!!EEV: 2026/04/24
